polaris-icons/icons/new-icons/BankMajor.svg

<svg width="20" height="20" viewBox="0 0 20 20" fill="none" xmlns="http://www.w3.org/2000/svg">
<path fill-rule="evenodd" clip-rule="evenodd" d="M9.75489 3.14518C10.078 3.00846 10.4438 3.01386 10.7628 3.16006L16.4167 5.75143C16.7721 5.91434 17 6.26948 17 6.66049V7.25007C17 7.80235 16.5523 8.25007 16 8.25007H15.5V12.0001H15.75C16.1642 12.0001 16.5 12.3359 16.5 12.7501C16.5 13.1643 16.1642 13.5001 15.75 13.5001H4.25C3.83579 13.5001 3.5 13.1643 3.5 12.7501C3.5 12.3359 3.83579 12.0001 4.25 12.0001H4.5V8.25007H4C3.44772 8.25007 3 7.80235 3 7.25007V6.66575C3 6.26403 3.24039 5.90131 3.61036 5.74478L9.75489 3.14518ZM10.2379 4.56955L5.08394 6.75007H14.9954L10.2379 4.56955ZM14 12.0001V8.25007H12.5V12.0001H14ZM9 8.25007H11V12.0001H9V8.25007ZM7.5 12.0001V8.25007H6V12.0001H7.5Z" fill="#4A4A4A"/>
<path d="M3.5 15.2501C3.5 14.8359 3.83579 14.5001 4.25 14.5001H15.75C16.1642 14.5001 16.5 14.8359 16.5 15.2501C16.5 15.6643 16.1642 16.0001 15.75 16.0001H4.25C3.83579 16.0001 3.5 15.6643 3.5 15.2501Z" fill="#4A4A4A"/>
</svg>

<svg viewBox="0 0 20 20" xmlns="http://www.w3.org/2000/svg"><path fill-rule="evenodd" d="M9.755 3.145a1.25 1.25 0 0 1 1.008.015l5.654 2.591a1 1 0 0 1 .583.91v.59a1 1 0 0 1-1 1h-.5v3.75h.25a.75.75 0 0 1 0 1.5h-11.5a.75.75 0 0 1 0-1.5h.25v-3.75h-.5a1 1 0 0 1-1-1v-.585a1 1 0 0 1 .61-.921l6.145-2.6Zm.483 1.425-5.154 2.18h9.911l-4.757-2.18Zm3.762 7.43v-3.75h-1.5v3.75h1.5Zm-5-3.75h2v3.75h-2v-3.75Zm-1.5 3.75v-3.75h-1.5v3.75h1.5Z" fill="#5C5F62"/><path d="M3.5 15.25a.75.75 0 0 1 .75-.75h11.5a.75.75 0 0 1 0 1.5h-11.5a.75.75 0 0 1-.75-.75Z" fill="#5C5F62"/></svg>
